build/img/hand.svg

<svg width="11" height="17" viewBox="0 0 11 17" fill="none" xmlns="http://www.w3.org/2000/svg">
<path d="M6.38386 4.125C7.25529 3.76315 7.72382 2.92064 7.5119 2.09671C7.30011 1.27278 6.46449 0.6875 5.49997 0.6875C4.53559 0.6875 3.69997 1.27278 3.48805 2.09671C3.27626 2.92064 3.74479 3.76315 4.61622 4.125H6.38386Z" fill="#F98AAB"/>
<path d="M3.1624 4.8125C3.08652 4.8125 3.01386 4.7794 2.96188 4.72092C1.81965 3.44293 1.75825 1.46537 2.81866 0.110841C2.88043 0.0280229 2.97982 -0.0130591 3.07835 0.0036877C3.17688 0.0204345 3.25907 0.0922625 3.29311 0.191435C3.32715 0.290607 3.30784 0.401424 3.24236 0.481102C2.35846 1.60994 2.4102 3.25832 3.36279 4.32279C3.43793 4.40718 3.45848 4.53081 3.41491 4.63731C3.37134 4.74368 3.27207 4.8125 3.1624 4.8125Z" fill="#F98AAB"/>
<path d="M8.26694 3.4375C8.16132 3.4375 8.06348 3.39302 8.00849 3.32017C7.9535 3.2472 7.94927 3.15647 7.99744 3.08053C8.54982 2.21095 8.4079 1.15869 7.63664 0.405891C7.56459 0.338669 7.54317 0.245176 7.58069 0.161508C7.61836 0.077839 7.70896 0.0172399 7.81759 0.0031112C7.92621 -0.0110175 8.03578 0.023642 8.10388 0.0935131C9.02947 0.997201 9.19977 2.26018 8.53699 3.30416C8.48514 3.38617 8.38075 3.43761 8.26694 3.4375Z" fill="#F98AAB"/>
<path d="M10.9998 7.86477V12.2986C10.9998 12.2986 10.9998 13.8082 10.0812 14.6822C9.9771 14.7858 9.91938 14.9301 9.92217 15.0799V15.9397C9.92132 16.2487 9.68059 16.499 9.38335 16.5H5.07268C4.77543 16.499 4.53471 16.2487 4.53386 15.9397V15.8361C4.53434 15.3871 4.36044 14.9568 4.05155 14.643C3.53153 14.1164 2.7287 13.2061 2.37846 12.2986C1.83964 10.8981 0.762005 8.93744 0.223186 8.37728C-0.315633 7.81711 0.223186 7.25694 0.762005 7.25694C1.30082 7.25694 2.37846 8.37728 2.91728 9.21759C3.08876 9.48803 3.28947 9.73703 3.5154 9.95981C3.64953 10.0894 3.83787 10.1391 4.01517 10.0914C4.19247 10.0438 4.33412 9.90547 4.391 9.72455C4.49359 9.37922 4.54186 9.01876 4.53386 8.65742V2.21532C4.53216 1.85928 4.74888 1.54156 5.07268 1.42544C5.15866 1.39153 5.24998 1.37451 5.34202 1.37501C5.78843 1.37501 6.15031 1.75123 6.15031 2.21532V5.57645C6.14862 5.22027 6.36533 4.90268 6.68913 4.78656C6.77524 4.75265 6.86656 4.7355 6.9586 4.73613C7.40489 4.73613 7.76677 5.11235 7.76677 5.57645V6.41663C7.76677 6.19385 7.85215 5.98015 8.00386 5.82293C8.08827 5.73379 8.19159 5.66659 8.30559 5.62688C8.39169 5.59296 8.48301 5.57582 8.57506 5.57645C9.02147 5.57645 9.38335 5.95266 9.38335 6.41663V7.81711C9.38335 7.59433 9.4686 7.38063 9.62044 7.22341C9.70472 7.13427 9.80817 7.06707 9.92217 7.02723C10.0272 6.98714 10.1392 6.97087 10.2508 6.9797C10.6836 7.02773 11.0091 7.41227 10.9998 7.86477Z" fill="#F98AAB"/>
<path d="M5.515 1.39259C5.42019 1.39209 5.32612 1.40895 5.23755 1.44256C4.90401 1.55761 4.68077 1.87241 4.68252 2.22519V8.60822C4.69077 8.96624 4.64105 9.32339 4.53536 9.66556C4.49164 9.7941 4.40295 9.90253 4.28564 9.97087C4.42993 10.0556 4.6047 10.0703 4.7611 10.011C4.91763 9.95163 5.03868 9.82458 5.09039 9.66556C5.19608 9.32339 5.2458 8.96624 5.23755 8.60822V2.22519C5.2358 1.87241 5.45904 1.55761 5.79258 1.44256C5.70389 1.40895 5.60982 1.39209 5.515 1.39259Z" fill="#F8EDF0"/>
<path d="M6.90318 4.77259C6.56964 4.88765 6.34641 5.20233 6.34815 5.55523V8.05292C6.34815 8.2062 6.47245 8.33038 6.62573 8.33038C6.77889 8.33038 6.90318 8.2062 6.90318 8.05292V5.55523C6.90156 5.20233 7.12467 4.88765 7.45821 4.77259C7.2792 4.70601 7.0822 4.70601 6.90318 4.77259Z" fill="#F8EDF0"/>
<path d="M8.57114 5.6056C8.45372 5.64495 8.34728 5.71154 8.26034 5.79986C8.10406 5.95563 8.01611 6.16738 8.01611 6.38811V8.05333C8.01611 8.20661 8.14041 8.33078 8.29369 8.33078C8.44697 8.33078 8.57114 8.20661 8.57114 8.05333V6.38811C8.56952 6.03533 8.79275 5.72065 9.1263 5.6056C8.94728 5.53902 8.75028 5.53902 8.57114 5.6056Z" fill="#F8EDF0"/>
<path d="M10.5127 6.94289C10.418 6.94226 10.3238 6.95913 10.2352 6.99273C10.1178 7.03221 10.0112 7.09879 9.9244 7.18711C9.768 7.34289 9.68018 7.55463 9.68018 7.77537V8.3304C9.68018 8.48368 9.80435 8.60797 9.95763 8.60797C10.1109 8.60797 10.2352 8.48368 10.2352 8.3304V7.77537C10.2335 7.42259 10.4567 7.10791 10.7902 6.99273C10.7015 6.95913 10.6075 6.94226 10.5127 6.94289Z" fill="#F8EDF0"/>
<path d="M9.96883 9.625C9.77896 9.625 9.625 9.74047 9.625 9.88286V11.4296C9.625 11.572 9.77896 11.6875 9.96883 11.6875C10.1587 11.6875 10.3125 11.572 10.3125 11.4296V9.88286C10.3125 9.74047 10.1587 9.625 9.96883 9.625Z" fill="#F8EDF0"/>
<path d="M10.09 12.375C9.96697 12.3779 9.86566 12.5214 9.85601 12.7061C9.83895 12.8807 9.78183 13.0408 9.6947 13.1588C9.63531 13.2451 9.61158 13.373 9.63244 13.4931C9.65329 13.6134 9.71566 13.7074 9.79539 13.7388C9.87522 13.7702 9.96009 13.7345 10.0174 13.645C10.1911 13.4029 10.2967 13.0697 10.3125 12.714C10.3123 12.5284 10.2132 12.3775 10.09 12.375Z" fill="#F8EDF0"/>
<path d="M5.9583 15.125H5.7292C5.60264 15.125 5.5 15.2788 5.5 15.4687C5.5 15.6585 5.60264 15.8125 5.7292 15.8125H5.9583C6.08486 15.8125 6.1875 15.6585 6.1875 15.4687C6.1875 15.2788 6.08486 15.125 5.9583 15.125Z" fill="#F8EDF0"/>
<path d="M8.70839 15.125H7.10421C6.97764 15.125 6.875 15.2788 6.875 15.4687C6.875 15.6585 6.97764 15.8125 7.10421 15.8125H8.70839C8.83496 15.8125 8.9375 15.6585 8.9375 15.4687C8.9375 15.2788 8.83496 15.125 8.70839 15.125Z" fill="#F8EDF0"/>
</svg>

<svg width="11" height="17" fill="none" xmlns="http://www.w3.org/2000/svg"><path d="M6.384 4.125c.871-.362 1.34-1.204 1.128-2.028C7.3 1.273 6.464.687 5.5.687s-1.8.586-2.012 1.41c-.212.824.257 1.666 1.128 2.028h1.768z" fill="#F98AAB"/><path d="M3.162 4.813a.268.268 0 01-.2-.092C1.82 3.443 1.758 1.465 2.819.11a.268.268 0 01.26-.107.28.28 0 01.214.187c.034.1.015.21-.05.29-.885 1.129-.833 2.777.12 3.842a.303.303 0 01.052.314.275.275 0 01-.253.176zm5.105-1.375a.324.324 0 01-.259-.118.205.205 0 01-.01-.24c.552-.87.41-1.921-.361-2.674A.21.21 0 017.58.162a.296.296 0 01.237-.159.342.342 0 01.286.09c.925.904 1.096 2.167.433 3.211a.318.318 0 01-.27.134z" fill="#F98AAB"/><path d="M11 7.865v4.434s0 1.51-.919 2.383a.547.547 0 00-.159.398v.86a.55.55 0 01-.539.56h-4.31a.552.552 0 01-.54-.56v-.104a1.698 1.698 0 00-.481-1.193c-.52-.527-1.323-1.437-1.674-2.344C1.84 10.899.762 8.937.223 8.377c-.539-.56 0-1.12.539-1.12s1.616 1.12 2.155 1.96c.172.271.372.52.598.743.135.13.323.18.5.131a.546.546 0 00.376-.366c.103-.346.15-.706.143-1.068V2.215a.83.83 0 01.808-.84c.446 0 .808.376.808.84v3.361a.83.83 0 01.809-.84c.446 0 .808.376.808.84v.84c0-.222.085-.436.237-.593a.76.76 0 01.302-.196.721.721 0 01.27-.05c.445 0 .807.376.807.84v1.4a.86.86 0 01.237-.594.761.761 0 01.302-.196.754.754 0 01.329-.047c.433.048.758.432.749.885z" fill="#F98AAB"/><path d="M5.515 1.393a.77.77 0 00-.277.05.824.824 0 00-.555.782v6.383a3.33 3.33 0 01-.148 1.058.563.563 0 01-.25.305.552.552 0 00.805-.305c.106-.343.156-.7.148-1.058V2.225a.824.824 0 01.555-.782.772.772 0 00-.278-.05zm1.388 3.38a.824.824 0 00-.555.782v2.498a.278.278 0 00.555 0V5.555a.824.824 0 01.555-.782.796.796 0 00-.555 0zm1.668.833a.83.83 0 00-.555.783v1.664a.277.277 0 00.555 0V6.388a.824.824 0 01.555-.782.796.796 0 00-.555 0zm1.942 1.337a.769.769 0 00-.278.05.83.83 0 00-.555.783v.554a.277.277 0 10.555 0v-.555a.824.824 0 01.555-.782.769.769 0 00-.277-.05zm-.544 2.682c-.19 0-.344.115-.344.258v1.547c0 .142.154.258.344.258.19 0 .344-.116.344-.258V9.883c0-.143-.154-.258-.344-.258zm.121 2.75c-.123.003-.224.146-.234.331a.92.92 0 01-.161.453.468.468 0 00-.063.334c.021.12.084.214.163.246.08.031.165-.005.222-.094.174-.242.28-.575.296-.931 0-.186-.1-.337-.223-.339zm-4.132 2.75H5.73c-.126 0-.229.154-.229.344 0 .19.103.344.23.344h.228c.127 0 .23-.155.23-.344 0-.19-.103-.344-.23-.344zm2.75 0H7.104c-.126 0-.229.154-.229.344 0 .19.103.344.23.344h1.603c.127 0 .23-.155.23-.344 0-.19-.103-.344-.23-.344z" fill="#F8EDF0"/></svg>
